svgs/sharp-thin/camera.svg

<svg xmlns="http://www.w3.org/2000/svg" viewBox="0 0 512 512"><!--! Font Awesome Pro 6.6.0 by @fontawesome - https://fontawesome.com License - https://fontawesome.com/license (Commercial License) Copyright 2024 Fonticons, Inc. --><path d="M352 32l21.3 64L496 96l16 0 0 16 0 352 0 16-16 0L16 480 0 480l0-16L0 112 0 96l16 0 122.7 0L160 32l192 0zm21.3 80l-11.5 0-3.6-10.9L340.5 48 171.5 48l-17.7 53.1L150.2 112l-11.5 0L16 112l0 352 480 0 0-352-122.7 0zM256 176a112 112 0 1 1 0 224 112 112 0 1 1 0-224zm96 112a96 96 0 1 0 -192 0 96 96 0 1 0 192 0z"/></svg>

<svg xmlns="http://www.w3.org/2000/svg" viewBox="0 0 512 512"><!--! Font Awesome Pro 6.5.2 by @fontawesome - https://fontawesome.com License - https://fontawesome.com/license (Commercial License) Copyright 2024 Fonticons, Inc. --><path d="M352 32l21.3 64H496h16v16V464v16H496 16 0V464 112 96H16 138.7L160 32H352zm21.3 80H361.8l-3.6-10.9L340.5 48H171.5l-17.7 53.1L150.2 112H138.7 16V464H496V112H373.3zM256 176a112 112 0 1 1 0 224 112 112 0 1 1 0-224zm96 112a96 96 0 1 0 -192 0 96 96 0 1 0 192 0z"/></svg>
